X:353
T:The yellow wattle
C:anon.
O:Ireland
R:Double jig
B:O'Neills's 1001
Z:Transcribed by Frank Nordberg http://www.musicaviva.com
M:6/8
L:1/8
K:D
cdA AGE|ABA AGE|dcA AGE|GAG GED|dcA AGE|ABA AGE|dcA ABc|dcA GED:|
|:G2G AEE|AGG AEE|G2G AEE|AGG GEA|G2G AEE|AGG AEE|G2G ABc|dcA GED:|
|:DFA DED|DFA GED|DFA DED|DEF GED|DFA DEE|DFA GED|DFA ABc|dcA GED:|
|:E/F/GE FED|AFD FED|E/F/GE FED|GEA GED|E/F/GE FED|AFD FED|DFA ABc|dcA GED:|


